X: 36
T:My Old Man
% Nottingham Music Database
S:Eric Foxley
M:4/4
L:1/4
K:D
d/2e/2|"D"f/2d/2A/2f/2 d/2A/2d/2e/2|"D"f/2d/2A/2f/2 d/2A/2d/2e/2|\
"D"f/2A/2f/2A/2 g/2A/2f/2A/2|
"A7"e/2c/2A/2e/2 c/2A/2c/2d/2|"A7"e/2c/2A/2e/2 c/2A/2c/2d/2|\
"A7"e/2c/2A/2e/2 c/2A/2c/2e/2|
"A7"a/2A/2^g/2A/2 a/2A/2=g/2A/2|"D"f/2d/2A/2f/2 "A7"d/2A/2d/2e/2|\
"D"f/2d/2A/2f/2 d/2A/2d/2e/2|
"D"f/2d/2A/2f/2 d/2A/2f/2e/2|"D7"d/2A/2d/2A/2 e/2A/2f/2A/2|\
"G"g/2d/2B/2g/2 d/2B/2f/2g/2|
"A7"a/2e/2c/2a/2 e/2c/2a/2c/2|"A7"a/2e/2c/2a/2 e/2c/2a/2c/2|\
"A7"a/2a/2g/2a/2 f/2a/2e/2a/2|"D"d3:|<end>
<start>
